svgs/light/lambda.svg

<svg xmlns="http://www.w3.org/2000/svg" viewBox="0 0 448 512"><!--! Font Awesome Pro 6.3.0 by @fontawesome - https://fontawesome.com License - https://fontawesome.com/license (Commercial License) Copyright 2023 Fonticons, Inc. --><path d="M448 464c0 8.799-7.199 16-16 16h-69.75c-12.52 0-23.89-7.277-29.13-18.64L177.8 124.7L30.72 470.3C28.13 476.3 22.22 480 16.01 480c-2.094 0-4.219-.4062-6.25-1.281c-8.156-3.469-11.94-12.84-8.469-20.97l158.4-372.2L151.9 68.66C150.6 65.82 147.7 64 144.6 64H16C7.199 64 0 56.8 0 48C0 39.2 7.199 32 16 32h133.8c12.52 0 23.89 7.277 29.13 18.64l181.2 392.7C361.4 446.3 364.3 448 367.4 448H432C440.8 448 448 455.2 448 464z"/></svg>

<svg xmlns="http://www.w3.org/2000/svg" viewBox="0 0 448 512"><!-- Font Awesome Pro 6.0.0-alpha2 by @fontawesome - https://fontawesome.com License - https://fontawesome.com/license (Commercial License) --><path d="M448 464C448 472.799 440.801 480 432 480H362.25C349.734 480 338.363 472.723 333.119 461.359L177.76 124.715L30.725 470.25C28.131 476.344 22.225 480 16.006 480C13.912 480 11.787 479.594 9.756 478.719C1.6 475.25 -2.182 465.875 1.287 457.75L159.678 85.531L151.891 68.658C150.586 65.818 147.748 64 144.625 64H16C7.199 64 0 56.799 0 48C0 39.199 7.199 32 16 32H149.75C162.266 32 173.639 39.277 178.883 50.641L360.125 443.375C361.375 446.25 364.25 448 367.375 448H432C440.801 448 448 455.199 448 464Z"/></svg>
